X:1
T:Woodchopper’s Reel
C:Ned Landry
L:1/8
M:2/2
I:linebreak $
K:D
V:1 treble nm="Voice" snm="Voice"
V:1
 fg |"D" afdB AdFA | DFAd f2 ef | gfe cB Aceg | a^gab a2 f=g |$ afdB AdFA | DFAd f2 ef | %7
 gfe cB Acec | dfec d2 ::$ FE | DFAd (3BdB AF | DFAd (3BdB A z | (D2 E2) A2 | gfed cBAF |$ %14
 DFAd (3BdB AF | DFAd (3BdB A z | A,(CE)A ceaf | (3gfe cA d2 :| %18
